X:140
%%pagewidth 8in
%%vocalfont Baskerville10Pro 13
T:The boatman
M:6/8
L:1/8
K:C
%%score 1 2
V:1 clef-treble
V:2 clef-bass octave=-1
V:1
G|GE2G3|GE2G2G|c2cB2A&E6|[Gd]3D3|
w:Ye Church-ales and~ye Mor-ris-es, With hob-by-horse ad-van-cing,~Ye
V:2
z|c6|[Bc]6|[Ac]6|[Gc]3[FGB]3|
V:1
GE2G3|GE2G2G|c2d e2d&^F3=F3|(c3D2)&E3x2||
w:round games with~fine Sim and Sis A-bout the May-pole dan-cing.
V:2
[EGc]6|[B_c]6|[Ac]3[G=B]3|[Cc]2zz2||
V:1
G|c2de2d&G6|c2BA2G&E6|[DF]2F E2D|d3D3|
w:Ye nim-ble joints, that with red points and rib-bons deck the bri-dal,~Lock
V:2
z|[Ec]6|[Ac]6|[Dc]6|[Gc]3[FGB]3|
V:1
GE2G3|GE2G2G|c2de2d&^F3=F3|(c3D2)&E3x2||
w:up your pumps,~and rest your stumps, For you are now down-cried all.
V:2
[EGc]6|[B_c]6|[Ac]3[G=B]3|[Cc]2zz2||

